X: 14773
T: Gan Ainm
R: jig
M: 6/8
K: Cmajor
|:CEG cde|fed edc|dBG FF/F/F|EDC DEF|
G^FG CEG|cde f2 d|edc dBG|1 fdB c2 G:|2 fdB cef||
|:gag e/g/e c|Gce gfe|fed edc|dBG F/G/F D|
CEG cde|fed edc|dBG fdB|1 dcB cef:|2 dcB c2 z||

